64x64/apps/lutris_team-fortress-classic.svg

<svg width="64" height="64" version="1.1" xmlns="http://www.w3.org/2000/svg">
 <circle cx="32" cy="33" r="28" style="opacity:.2"/>
 <circle cx="32" cy="32" r="28" style="fill:#17191e"/>
 <path d="M 32,4 A 28,28 0 0 0 4,32 28,28 0 0 0 4.0215,32.586 28,28 0 0 1 32,5 28,28 0 0 1 59.979,32.414 28,28 0 0 0 60,32 28,28 0 0 0 32,4 Z" style="fill:#f4f4f7;opacity:.1"/>
 <path d="m29 10.222359a23 23 0 0 0-19.779297 19.777344h16.464844a7 7 0 0 1 3.314453-3.316406zm6.078125 0.0098v16.49023a7 7 0 0 1 3.238281 3.277344h16.460938a23 23 0 0 0-19.699219-19.767608zm-25.855469 25.767544a23 23 0 0 0 19.777344 19.779297v-16.464844a7 7 0 0 1-3.316406-3.314453zm29.091797 0a7 7 0 0 1-3.236328 3.28125v16.486328a23 23 0 0 0 19.701172-19.767578z" style="opacity:.2"/>
 <path d="m29 9.2226562a23 23 0 0 0-19.779297 19.777344h16.464844a7 7 0 0 1 3.314453-3.316406v-16.460938zm6.078125 0.0097657v16.490234a7 7 0 0 1 3.238281 3.277344h16.460938a23 23 0 0 0-19.699219-19.767578zm-25.855469 25.767578a23 23 0 0 0 19.777344 19.779297v-16.464844a7 7 0 0 1-3.316406-3.314453h-16.460938zm29.091797 0a7 7 0 0 1-3.236328 3.28125v16.486328a23 23 0 0 0 19.701172-19.767578h-16.464844z" style="fill:#e2b322"/>
 <path d="m29 9.2226562a23 23 0 0 0-19.779297 19.777344h0.1816407a23 23 0 0 1 19.597656-18.777344v-0.9999998zm6.078125 0.0097657v1.0000001a23 23 0 0 1 19.515625 18.767578h0.183594a23 23 0 0 0-19.699219-19.767578zm-25.855469 25.767578a23 23 0 0 0 0.1835938 1h16.277344a7 7 0 0 0 3.316406 3.314453v-1a7 7 0 0 1-3.316406-3.314453h-16.460938zm29.091797 0a7 7 0 0 1-3.236328 3.28125v1a7 7 0 0 0 3.236328-3.28125h16.28125a23 23 0 0 0 0.183594-1h-16.464844z" style="fill:#f4f4f7;opacity:.2"/>
</svg>

<svg width="64" height="64" xmlns="http://www.w3.org/2000/svg"><circle cx="32" cy="33" r="28" style="opacity:.2"/><circle cx="32" cy="32" r="28" style="fill:#17191e"/><path d="M32 4A28 28 0 0 0 4 32a28 28 0 0 0 .021.586A28 28 0 0 1 32 5a28 28 0 0 1 27.979 27.414A28 28 0 0 0 60 32 28 28 0 0 0 32 4z" style="fill:#f4f4f7;opacity:.1"/><path d="M29 10.222A23 23 0 0 0 9.22 30h16.466A7 7 0 0 1 29 26.683zm6.078.01v16.49A7 7 0 0 1 38.316 30h16.461a23 23 0 0 0-19.699-19.768zM9.223 36A23 23 0 0 0 29 55.779V39.314A7 7 0 0 1 25.684 36zm29.091 0a7 7 0 0 1-3.236 3.281v16.486A23 23 0 0 0 54.78 36z" style="opacity:.2"/><path d="M29 9.223A23 23 0 0 0 9.22 29h16.466A7 7 0 0 1 29 25.684V9.223zm6.078.01v16.49A7 7 0 0 1 38.316 29h16.461A23 23 0 0 0 35.078 9.232zM9.223 35A23 23 0 0 0 29 54.78V38.313A7 7 0 0 1 25.684 35H9.223zm29.091 0a7 7 0 0 1-3.236 3.281v16.487A23 23 0 0 0 54.78 35H38.314z" style="fill:#e2b322"/><path d="M29 9.223A23 23 0 0 0 9.22 29h.182A23 23 0 0 1 29 10.223v-1zm6.078.01v1A23 23 0 0 1 54.594 29h.183A23 23 0 0 0 35.078 9.232zM9.223 35a23 23 0 0 0 .183 1h16.278A7 7 0 0 0 29 39.314v-1A7 7 0 0 1 25.684 35H9.223zm29.091 0a7 7 0 0 1-3.236 3.281v1A7 7 0 0 0 38.314 36h16.282a23 23 0 0 0 .183-1H38.314z" style="fill:#f4f4f7;opacity:.2"/></svg>
